src/22/panel/weather-snow.svg

<svg xmlns="http://www.w3.org/2000/svg" width="22" height="22" version="1.1">
 <defs>
  <style id="current-color-scheme" type="text/css">
   .ColorScheme-Text { color:#dfdfdf; } .ColorScheme-Highlight { color:#4285f4; }
  </style>
 </defs>
 <g transform="translate(-129.00001,-681.28994)">
  <path style="fill:currentColor" class="ColorScheme-Text" d="M 11 3.0039062 C 8.92893 3.0039062 7.16529 4.2718263 6.40625 6.0664062 C 4.47842 6.3530063 3 7.9963263 3 10.003906 C 3 12.213046 4.79086 14.003906 7 14.003906 L 15.5 14.003906 C 17.433 14.003906 19 12.436906 19 10.503906 C 19 8.7073662 17.64921 7.2352063 15.90625 7.0351562 C 15.45168 4.7417662 13.42687 3.0039062 11 3.0039062 z M 7 15 A 1 1 0 0 0 6 16 A 1 1 0 0 0 7 17 A 1 1 0 0 0 8 16 A 1 1 0 0 0 7 15 z M 11 15 A 1 1 0 0 0 10 16 A 1 1 0 0 0 11 17 A 1 1 0 0 0 12 16 A 1 1 0 0 0 11 15 z M 15 15 A 1 1 0 0 0 14 16 A 1 1 0 0 0 15 17 A 1 1 0 0 0 16 16 A 1 1 0 0 0 15 15 z M 5 17 A 1 1 0 0 0 4 18 A 1 1 0 0 0 5 19 A 1 1 0 0 0 6 18 A 1 1 0 0 0 5 17 z M 9 17 A 1 1 0 0 0 8 18 A 1 1 0 0 0 9 19 A 1 1 0 0 0 10 18 A 1 1 0 0 0 9 17 z M 13 17 A 1 1 0 0 0 12 18 A 1 1 0 0 0 13 19 A 1 1 0 0 0 14 18 A 1 1 0 0 0 13 17 z M 17 17 A 1 1 0 0 0 16 18 A 1 1 0 0 0 17 19 A 1 1 0 0 0 18 18 A 1 1 0 0 0 17 17 z" transform="translate(129.00001,681.28994)"/>
 </g>
</svg>

<svg xmlns="http://www.w3.org/2000/svg" width="22" height="22"><defs><style id="current-color-scheme" type="text/css">.ColorScheme-Text{color:#dfdfdf;}.ColorScheme-Highlight{color:#5294e2;}</style></defs><defs><style id="current-color-scheme" type="text/css"></style></defs><path d="M11 3.004c-2.071 0-3.835 1.268-4.594 3.062A3.981 3.981 0 0 0 3 10.004a4 4 0 0 0 4 4h8.5a3.5 3.5 0 0 0 3.5-3.5 3.49 3.49 0 0 0-3.094-3.469A5.011 5.011 0 0 0 11 3.004zM7 15a1 1 0 0 0-1 1 1 1 0 0 0 1 1 1 1 0 0 0 1-1 1 1 0 0 0-1-1zm4 0a1 1 0 0 0-1 1 1 1 0 0 0 1 1 1 1 0 0 0 1-1 1 1 0 0 0-1-1zm4 0a1 1 0 0 0-1 1 1 1 0 0 0 1 1 1 1 0 0 0 1-1 1 1 0 0 0-1-1zM5 17a1 1 0 0 0-1 1 1 1 0 0 0 1 1 1 1 0 0 0 1-1 1 1 0 0 0-1-1zm4 0a1 1 0 0 0-1 1 1 1 0 0 0 1 1 1 1 0 0 0 1-1 1 1 0 0 0-1-1zm4 0a1 1 0 0 0-1 1 1 1 0 0 0 1 1 1 1 0 0 0 1-1 1 1 0 0 0-1-1zm4 0a1 1 0 0 0-1 1 1 1 0 0 0 1 1 1 1 0 0 0 1-1 1 1 0 0 0-1-1z" fill="currentColor" class="ColorScheme-Text"/></svg>
